public/assets/messenger.svg

<svg width="24" height="24" viewBox="0 0 24 24" fill="none" xmlns="http://www.w3.org/2000/svg">
<path d="M2 11.7003C2 6.12639 6.36625 2 12 2C17.6337 2 22 6.12639 22 11.7003C22 17.2743 17.6337 21.4007 12 21.4007C10.9875 21.4007 10.0175 21.2669 9.105 21.0169C8.92806 20.9677 8.73956 20.9809 8.57125 21.0544L6.58625 21.9319C6.46636 21.9848 6.33532 22.0075 6.20465 21.9978C6.07397 21.9882 5.94766 21.9467 5.83681 21.8768C5.72596 21.8069 5.63396 21.7109 5.56892 21.5971C5.50387 21.4834 5.46775 21.3554 5.46375 21.2244L5.40875 19.4456C5.40495 19.3373 5.37917 19.231 5.33296 19.133C5.28676 19.035 5.22111 18.9474 5.14 18.8756C3.195 17.1355 2 14.6154 2 11.7003ZM8.9325 9.87653L5.995 14.5367C5.71375 14.9842 6.2625 15.488 6.68375 15.1692L9.84 12.7741C9.94381 12.6953 10.0705 12.6524 10.2008 12.6519C10.3312 12.6515 10.4581 12.6935 10.5625 12.7716L12.8987 14.5242C13.0645 14.6485 13.2542 14.7371 13.4559 14.7845C13.6577 14.8318 13.867 14.8368 14.0707 14.7993C14.2745 14.7617 14.4683 14.6823 14.6398 14.5661C14.8114 14.4499 14.957 14.2994 15.0675 14.1242L18.005 9.46401C18.2875 9.0165 17.7375 8.51273 17.3163 8.83149L14.16 11.2266C14.0562 11.3054 13.9295 11.3483 13.7992 11.3488C13.6688 11.3492 13.5419 11.3072 13.4375 11.2291L11.1013 9.47526C10.9355 9.35095 10.7458 9.26233 10.5441 9.21499C10.3423 9.16765 10.133 9.16261 9.92925 9.20019C9.7255 9.23777 9.53174 9.31716 9.36018 9.43335C9.18863 9.54954 9.04301 9.70126 8.9325 9.87653Z" fill="#BFDBFE"/>
</svg>

<svg xmlns="http://www.w3.org/2000/svg" width="24" height="24" fill="none"><path fill="#BFDBFE" d="M2 11.7C2 6.13 6.37 2 12 2s10 4.13 10 9.7c0 5.57-4.37 9.7-10 9.7-1.01 0-1.98-.13-2.9-.38a.8.8 0 0 0-.53.03l-1.98.88a.8.8 0 0 1-1.13-.7l-.05-1.78a.8.8 0 0 0-.27-.57A9.5 9.5 0 0 1 2 11.7Zm6.93-1.82L6 14.54c-.29.44.26.95.68.63l3.16-2.4a.6.6 0 0 1 .72 0l2.34 1.75a1.5 1.5 0 0 0 2.17-.4L18 9.46c.29-.44-.26-.95-.68-.63l-3.16 2.4a.6.6 0 0 1-.72 0L11.1 9.48a1.5 1.5 0 0 0-2.17.4Z"/></svg>
